symbolic/32x32/apps/phpmyadmin.svg

<svg xmlns="http://www.w3.org/2000/svg" width="32" height="32" version="1">
 <rect style="opacity:0.2" width="28" height="28" x="2" y="3" rx="1.4" ry="1.4"/>
 <rect style="fill:#4f4f4f" width="28" height="28" x="2" y="2" rx="1.4" ry="1.4"/>
 <path style="opacity:0.2;fill:none;stroke:#180f06;stroke-width:2;stroke-linecap:round;stroke-linejoin:bevel" d="m 5,16.986232 c 0,0 4,0.660359 4,-1.914004 C 9,12.497864 5.0141531,12.97231 5.0141531,12.97231 m 1.008e-4,7.99968 v -7.999576"/>
 <path style="fill:none;stroke:#a287e9;stroke-width:2;stroke-linecap:round;stroke-linejoin:bevel" d="m 5,15.986232 c 0,0 4,0.660359 4,-1.914004 C 9,11.497864 5.0141531,11.97231 5.0141531,11.97231 m 1.008e-4,7.99968 v -7.999576"/>
 <path style="opacity:0.2;fill:none;stroke:#180f06;stroke-width:2;stroke-linecap:round;stroke-linejoin:round" d="m 19,20.985758 v -7.999526 m -5.991415,0 L 16,17 19,12.986232 m -5.991415,7.999526 v -7.999526"/>
 <path style="fill:none;stroke:#ffb042;stroke-width:2;stroke-linecap:round;stroke-linejoin:round" d="m 19,19.985758 v -7.999526 m -5.991415,0 L 16,16 19,11.986232 m -5.991415,7.999526 v -7.999526"/>
 <path style="opacity:0.2;fill:none;stroke:#180f06;stroke-width:2;stroke-linecap:round;stroke-linejoin:bevel" d="M 22.999948,17.986232 H 27 M 23.000052,20.97199 V 15.104634 M 27,20.97199 v -5.867356 m -4.000052,0 c 0,0 -0.08911,-2.13217 2.000052,-2.13217 2.089158,0 2,2.13217 2,2.13217"/>
 <path style="fill:none;stroke:#ffb042;stroke-width:2;stroke-linecap:round;stroke-linejoin:bevel" d="M 22.999948,16.986232 H 27 M 23.000052,19.97199 V 14.104634 M 27,19.97199 v -5.867356 m -4.000052,0 c 0,0 -0.08911,-2.13217 2.000052,-2.13217 2.089158,0 2,2.13217 2,2.13217"/>
 <path style="fill:#ffffff;opacity:0.1" d="M 3.4003906 2 C 2.6247906 2 2 2.6247906 2 3.4003906 L 2 4.4003906 C 2 3.6247906 2.6247906 3 3.4003906 3 L 28.599609 3 C 29.375209 3 30 3.6247906 30 4.4003906 L 30 3.4003906 C 30 2.6247906 29.375209 2 28.599609 2 L 3.4003906 2 z"/>
</svg>

<svg xmlns="http://www.w3.org/2000/svg" width="32" height="32" version="1"><rect style="opacity:.2" width="28" height="28" x="2" y="3" rx="1.4" ry="1.4"/><rect style="fill:#4f4f4f" width="28" height="28" x="2" y="2" rx="1.4" ry="1.4"/><path style="opacity:.2;fill:none;stroke:#180f06;stroke-width:2;stroke-linecap:round;stroke-linejoin:bevel" d="M5 16.986s4 .66 4-1.914-3.986-2.1-3.986-2.1m0 8v-8"/><path style="fill:none;stroke:#a287e9;stroke-width:2;stroke-linecap:round;stroke-linejoin:bevel" d="M5 15.986s4 .66 4-1.914-3.986-2.1-3.986-2.1m0 8v-8"/><path style="opacity:.2;fill:none;stroke:#180f06;stroke-width:2;stroke-linecap:round;stroke-linejoin:round" d="M19 20.986v-8m-5.991 0L16 17l3-4.014m-5.991 8v-8"/><path style="fill:none;stroke:#ffb042;stroke-width:2;stroke-linecap:round;stroke-linejoin:round" d="M19 19.986v-8m-5.991 0L16 16l3-4.014m-5.991 8v-8"/><path style="opacity:.2;fill:none;stroke:#180f06;stroke-width:2;stroke-linecap:round;stroke-linejoin:bevel" d="M23 17.986h4m-4 2.986v-5.867m4 5.867v-5.867m-4 0s-.09-2.133 2-2.133 2 2.133 2 2.133"/><path style="fill:none;stroke:#ffb042;stroke-width:2;stroke-linecap:round;stroke-linejoin:bevel" d="M23 16.986h4m-4 2.986v-5.867m4 5.867v-5.867m-4 0s-.09-2.133 2-2.133 2 2.133 2 2.133"/><path style="fill:#fff;opacity:.1" d="M3.4 2C2.625 2 2 2.625 2 3.4v1C2 3.625 2.625 3 3.4 3h25.2c.775 0 1.4.625 1.4 1.4v-1c0-.775-.625-1.4-1.4-1.4H3.4z"/></svg>
